_includes/icons/ios-android-os.svg

<svg fill="#666" height="50" viewBox="0 0 50 50" width="50" xmlns="http://www.w3.org/2000/svg"><path d="m16.375-.03125c-.042969.0078125-.085937.0195312-.125.03125-.328125.0742188-.597656.304688-.71875.621094s-.074219.667969.125.941406l2.125 3.1875c-3.597656 1.890625-6.179687 5.152344-6.78125 9.03125v.03125.03125.09375.0625c-.003906.050781-.003906.105469 0 .15625v1.40625c-.59375-.347656-1.265625-.5625-2-.5625-2.199219 0-4 1.800781-4 4v12c0 2.199219 1.800781 4 4 4 .734375 0 1.40625-.214844 2-.5625v2.5625c0 1.644531 1.355469 3 3 3h1v6c0 2.199219 1.800781 4 4 4s4-1.800781 4-4v-6h4v6c0 2.199219 1.800781 4 4 4s4-1.800781 4-4v-6h1c1.644531 0 3-1.355469 3-3v-2.5625c.59375.347656 1.265625.5625 2 .5625 2.199219 0 4-1.800781 4-4v-12c0-2.199219-1.800781-4-4-4-.734375 0-1.40625.214844-2 .5625v-1.375c.011719-.09375.011719-.1875 0-.28125 0-.011719 0-.019531 0-.03125s0-.019531 0-.03125c-.582031-3.90625-3.164062-7.195312-6.78125-9.09375l2.125-3.1875c.246094-.335937.253906-.789062.023438-1.136719-.226563-.347656-.648438-.519531-1.054688-.425781-.257812.0585938-.484375.214844-.625.4375l-2.34375 3.46875c-1.648437-.59375-3.460937-.90625-5.34375-.90625-1.882812 0-3.695312.3125-5.34375.90625l-2.34375-3.46875c-.199219-.320312-.5625-.5-.9375-.46875zm8.625 5.03125c1.878906 0 3.640625.367188 5.1875 1.03125.03125.011719.0625.023438.09375.03125 3.128906 1.371094 5.40625 3.9375 6.28125 6.9375h-23.125c.863281-2.957031 3.09375-5.492187 6.15625-6.875.066406-.023437.128906-.054687.1875-.09375 1.554688-.671875 3.328125-1.03125 5.21875-1.03125zm-5.5 3c-.832031 0-1.5.671875-1.5 1.5 0 .832031.667969 1.5 1.5 1.5.828125 0 1.5-.667969 1.5-1.5 0-.828125-.671875-1.5-1.5-1.5zm11 0c-.828125 0-1.5.671875-1.5 1.5 0 .832031.671875 1.5 1.5 1.5.832031 0 1.5-.667969 1.5-1.5 0-.828125-.667969-1.5-1.5-1.5zm-17.5 7h24v22c0 .5625-.4375 1-1 1h-7.8125c-.132812-.027344-.273437-.027344-.40625 0h-11.59375c-.132812-.027344-.273437-.027344-.40625 0h-1.78125c-.5625 0-1-.4375-1-1zm-4 2c1.117188 0 2 .882813 2 2v12c0 1.117188-.882812 2-2 2-1.117187 0-2-.882812-2-2v-12c0-1.117187.882813-2 2-2zm32 0c1.117188 0 2 .882813 2 2v12c0 1.117188-.882812 2-2 2-1.117187 0-2-.882812-2-2v-12c0-1.117187.882813-2 2-2zm-24 23h4v6c0 1.117188-.882812 2-2 2-1.117187 0-2-.882812-2-2zm12 0h4v6c0 1.117188-.882812 2-2 2-1.117187 0-2-.882812-2-2z"/></svg>

<svg xmlns="http://www.w3.org/2000/svg" viewBox="0 0 50 50" width="50" height="50" fill="#666"><path d="M 16.375 -0.03125 C 16.332031 -0.0234375 16.289063 -0.0117188 16.25 0 C 15.921875 0.0742188 15.652344 0.304688 15.53125 0.621094 C 15.410156 0.9375 15.457031 1.289063 15.65625 1.5625 L 17.78125 4.75 C 14.183594 6.640625 11.601563 9.902344 11 13.78125 C 11 13.792969 11 13.800781 11 13.8125 C 11 13.824219 11 13.832031 11 13.84375 C 11 13.875 11 13.90625 11 13.9375 C 11 13.957031 11 13.980469 11 14 C 10.996094 14.050781 10.996094 14.105469 11 14.15625 L 11 15.5625 C 10.40625 15.214844 9.734375 15 9 15 C 6.800781 15 5 16.800781 5 19 L 5 31 C 5 33.199219 6.800781 35 9 35 C 9.734375 35 10.40625 34.785156 11 34.4375 L 11 37 C 11 38.644531 12.355469 40 14 40 L 15 40 L 15 46 C 15 48.199219 16.800781 50 19 50 C 21.199219 50 23 48.199219 23 46 L 23 40 L 27 40 L 27 46 C 27 48.199219 28.800781 50 31 50 C 33.199219 50 35 48.199219 35 46 L 35 40 L 36 40 C 37.644531 40 39 38.644531 39 37 L 39 34.4375 C 39.59375 34.785156 40.265625 35 41 35 C 43.199219 35 45 33.199219 45 31 L 45 19 C 45 16.800781 43.199219 15 41 15 C 40.265625 15 39.59375 15.214844 39 15.5625 L 39 14.1875 C 39.011719 14.09375 39.011719 14 39 13.90625 C 39 13.894531 39 13.886719 39 13.875 C 39 13.863281 39 13.855469 39 13.84375 C 38.417969 9.9375 35.835938 6.648438 32.21875 4.75 L 34.34375 1.5625 C 34.589844 1.226563 34.597656 0.773438 34.367188 0.425781 C 34.140625 0.078125 33.71875 -0.09375 33.3125 0 C 33.054688 0.0585938 32.828125 0.214844 32.6875 0.4375 L 30.34375 3.90625 C 28.695313 3.3125 26.882813 3 25 3 C 23.117188 3 21.304688 3.3125 19.65625 3.90625 L 17.3125 0.4375 C 17.113281 0.117188 16.75 -0.0625 16.375 -0.03125 Z M 25 5 C 26.878906 5 28.640625 5.367188 30.1875 6.03125 C 30.21875 6.042969 30.25 6.054688 30.28125 6.0625 C 33.410156 7.433594 35.6875 10 36.5625 13 L 13.4375 13 C 14.300781 10.042969 16.53125 7.507813 19.59375 6.125 C 19.660156 6.101563 19.722656 6.070313 19.78125 6.03125 C 21.335938 5.359375 23.109375 5 25 5 Z M 19.5 8 C 18.667969 8 18 8.671875 18 9.5 C 18 10.332031 18.667969 11 19.5 11 C 20.328125 11 21 10.332031 21 9.5 C 21 8.671875 20.328125 8 19.5 8 Z M 30.5 8 C 29.671875 8 29 8.671875 29 9.5 C 29 10.332031 29.671875 11 30.5 11 C 31.332031 11 32 10.332031 32 9.5 C 32 8.671875 31.332031 8 30.5 8 Z M 13 15 L 37 15 L 37 37 C 37 37.5625 36.5625 38 36 38 L 28.1875 38 C 28.054688 37.972656 27.914063 37.972656 27.78125 38 L 16.1875 38 C 16.054688 37.972656 15.914063 37.972656 15.78125 38 L 14 38 C 13.4375 38 13 37.5625 13 37 Z M 9 17 C 10.117188 17 11 17.882813 11 19 L 11 31 C 11 32.117188 10.117188 33 9 33 C 7.882813 33 7 32.117188 7 31 L 7 19 C 7 17.882813 7.882813 17 9 17 Z M 41 17 C 42.117188 17 43 17.882813 43 19 L 43 31 C 43 32.117188 42.117188 33 41 33 C 39.882813 33 39 32.117188 39 31 L 39 19 C 39 17.882813 39.882813 17 41 17 Z M 17 40 L 21 40 L 21 46 C 21 47.117188 20.117188 48 19 48 C 17.882813 48 17 47.117188 17 46 Z M 29 40 L 33 40 L 33 46 C 33 47.117188 32.117188 48 31 48 C 29.882813 48 29 47.117188 29 46 Z"/></svg>
